svgs/sharp-thin/dumbbell.svg

<svg xmlns="http://www.w3.org/2000/svg" viewBox="0 0 640 512"><!--! Font Awesome Pro 6.6.0 by @fontawesome - https://fontawesome.com License - https://fontawesome.com/license (Commercial License) Copyright 2024 Fonticons, Inc. --><path d="M208 48l0 200 0 16 0 200-80 0 0-48 0-16 0-288 0-16 0-48 80 0zM112 416l0 48 0 16 16 0 80 0 16 0 0-16 0-200 192 0 0 200 0 16 16 0 80 0 16 0 0-16 0-48 64 0 16 0 0-16 0-136 24 0 8 0 0-16-8 0-24 0 0-136 0-16-16 0-64 0 0-48 0-16-16 0-80 0-16 0 0 16 0 200-192 0 0-200 0-16-16 0-80 0-16 0 0 16 0 48L48 96 32 96l0 16 0 136L8 248l-8 0 0 16 8 0 24 0 0 136 0 16 16 0 64 0zM528 112l64 0 0 136 0 16 0 136-64 0 0-288zM512 416l0 48-80 0 0-200 0-16 0-200 80 0 0 48 0 16 0 288 0 16zM112 400l-64 0 0-136 0-16 0-136 64 0 0 288z"/></svg>

<svg xmlns="http://www.w3.org/2000/svg" viewBox="0 0 640 512"><!--! Font Awesome Pro 6.5.2 by @fontawesome - https://fontawesome.com License - https://fontawesome.com/license (Commercial License) Copyright 2024 Fonticons, Inc. --><path d="M208 48V248v16V464H128V416 400 112 96 48h80zM112 416v48 16h16 80 16V464 264H416V464v16h16 80 16V464 416h64 16V400 264h24 8V248h-8H608V112 96H592 528V48 32H512 432 416V48 248H224V48 32H208 128 112V48 96H48 32v16V248H8 0v16H8 32V400v16H48h64zM528 112h64V248v16V400H528V112zM512 416v48H432V264 248 48h80V96v16V400v16zM112 400H48V264 248 112h64V400z"/></svg>
